src/svgs/previous-week.svg

<svg xmlns="http://www.w3.org/2000/svg" viewBox="0 0 24 24" width="512" height="512" aria-labelledby="jnprevious-week-desc jnprevious-week-title"><title id="jnprevious-week-title">Next Week Icon</title><desc id="jnprevious-week-desc">A picture depicting a square with an arrow pointing left.</desc><path d="M20 2H4a2 2 0 00-2 2v16a2 2 0 002 2h16a2 2 0 002-2V4a2 2 0 00-2-2zm0 18H4V4h16zm-2-2H6v-3h12zM10 6v3h8v2h-8v3l-4-4z"/></svg>

<svg xmlns="http://www.w3.org/2000/svg" viewBox="0 0 24 24"><path d="M20,2H4A2,2,0,0,0,2,4V20a2,2,0,0,0,2,2H20a2,2,0,0,0,2-2V4A2,2,0,0,0,20,2Zm0,18H4V4H20Zm-2-2H6V15H18ZM10,6V9h8v2H10v3L6,10Z"/></svg>
